public/assets/icons/file-docx.svg

<svg
      width="40"
      height="40"
      viewBox="0 0 40 40"
      fill="none"
      xmlns="http://www.w3.org/2000/svg"
    >
      <g clipPath="url(#clip0_5564_18606)">
        <path
          fillRule="evenodd"
          clipRule="evenodd"
          d="M13.1705 0H26.7157L38.6766 11.9586V34.9271C38.6766 37.7184 36.3928 40 33.6037 40H13.1705C10.3815 40 8.09766 37.7184 8.09766 34.9271V5.07289C8.09773 2.28148 10.3816 0 13.1705 0Z"
          fill="#008BF5"
        />
        <path
          fillRule="evenodd"
          clipRule="evenodd"
          d="M26.7168 0L38.6777 11.9586H28.0084C27.2975 11.9586 26.7168 11.3802 26.7168 10.6692V0Z"
          fill="#006FC4"
        />
        <path
          fillRule="evenodd"
          clipRule="evenodd"
          d="M2.43758 17.0315H29.9874C30.5978 17.0315 31.1008 17.5321 31.1008 18.1448V28.2517C31.1008 28.8644 30.5978 29.3673 29.9874 29.3673H2.43758C1.82492 29.3673 1.32422 28.8644 1.32422 28.2517V18.1448C1.3243 17.5321 1.82492 17.0315 2.43758 17.0315Z"
          fill="#006FC4"
        />
        <path
          d="M13.2637 19.0948C11.7617 19.0948 10.5398 20.3167 10.5398 21.8186V24.5802C10.5398 26.0821 11.7618 27.304 13.2637 27.304C14.7657 27.304 15.9876 26.082 15.9876 24.5802V21.8186C15.9876 20.3166 14.7657 19.0948 13.2637 19.0948ZM14.6959 24.5802C14.6959 25.3698 14.0534 26.0123 13.2637 26.0123C12.474 26.0123 11.8315 25.3698 11.8315 24.5802V21.8186C11.8315 21.0289 12.474 20.3864 13.2637 20.3864C14.0534 20.3864 14.6959 21.0289 14.6959 21.8186V24.5802ZM18.1502 21.8186V24.5802C18.1502 25.3698 18.7927 26.0123 19.5824 26.0123C20.3722 26.0123 21.0147 25.3698 21.0147 24.5802C21.0147 24.2234 21.3038 23.9343 21.6605 23.9343C22.0173 23.9343 22.3063 24.2234 22.3063 24.5802C22.3063 26.0821 21.0844 27.304 19.5824 27.304C18.0805 27.304 16.8586 26.082 16.8586 24.5802V21.8186C16.8586 20.3166 18.0805 19.0948 19.5824 19.0948C21.0845 19.0948 22.3063 20.3167 22.3063 21.8186C22.3063 22.1753 22.0172 22.4645 21.6605 22.4645C21.3038 22.4645 21.0147 22.1753 21.0147 21.8186C21.0147 21.0289 20.3722 20.3864 19.5824 20.3864C18.7927 20.3864 18.1502 21.0289 18.1502 21.8186ZM6.83516 19.0948H4.75711C4.40039 19.0948 4.11133 19.3839 4.11133 19.7405V26.6582C4.11133 27.0149 4.40047 27.304 4.75711 27.304H6.83516C8.33711 27.304 9.55898 26.082 9.55898 24.5802V21.8186C9.55906 20.3166 8.33711 19.0948 6.83516 19.0948ZM8.26742 24.5802C8.26742 25.3698 7.62492 26.0123 6.83523 26.0123H5.40297V20.3863H6.83516C7.62484 20.3863 8.26734 21.0288 8.26734 21.8185V24.5802H8.26742ZM28.2175 26.3256C28.4012 26.6313 28.3023 27.0281 27.9965 27.2118C27.8923 27.2743 27.7777 27.3041 27.6645 27.3041C27.4452 27.3041 27.2314 27.1923 27.1103 26.9908L25.5859 24.4534L24.0614 26.9908C23.9403 27.1924 23.7264 27.3041 23.5072 27.3041C23.3939 27.3041 23.2794 27.2743 23.1752 27.2118C22.8695 27.0281 22.7705 26.6313 22.9542 26.3256L24.8325 23.1994L22.9542 20.0731C22.7705 19.7674 22.8695 19.3706 23.1752 19.187C23.4811 19.0033 23.8777 19.1023 24.0614 19.408L25.5859 21.9454L27.1103 19.408C27.294 19.1023 27.6907 19.0033 27.9965 19.187C28.3022 19.3706 28.4012 19.7674 28.2175 20.0731L26.3392 23.1994L28.2175 26.3256Z"
          fill="white"
        />
      </g>
      <defs>
        <clipPath id="clip0_5564_18606">
          <rect width="40" height="40" fill="white" />
        </clipPath>
      </defs>
    </svg>

<svg xmlns="http://www.w3.org/2000/svg" width="40" height="40" fill="none"><path fill="#008BF5" d="M13.17 0h13.546l11.96 11.959v22.968c0 2.791-2.283 5.073-5.072 5.073H13.17c-2.79 0-5.073-2.282-5.073-5.073V5.073C8.098 2.28 10.382 0 13.17 0"/><path fill="#006FC4" d="m26.717 0 11.96 11.959H28.009c-.71 0-1.291-.579-1.291-1.29zM2.438 17.032h27.55c.61 0 1.113.5 1.113 1.113v10.107a1.12 1.12 0 0 1-1.114 1.115H2.437a1.12 1.12 0 0 1-1.113-1.115V18.145c0-.613.5-1.113 1.114-1.113"/><path fill="#fff" d="M13.264 19.095a2.727 2.727 0 0 0-2.724 2.724v2.761a2.727 2.727 0 0 0 2.724 2.724 2.727 2.727 0 0 0 2.724-2.724V21.82a2.727 2.727 0 0 0-2.724-2.724m1.432 5.485c0 .79-.643 1.432-1.432 1.432-.79 0-1.432-.642-1.432-1.432V21.82c0-.79.642-1.433 1.432-1.433s1.432.643 1.432 1.433zm3.454-2.761v2.761c0 .79.643 1.432 1.432 1.432.79 0 1.433-.642 1.433-1.432a.646.646 0 1 1 1.291 0 2.727 2.727 0 0 1-2.724 2.724 2.727 2.727 0 0 1-2.723-2.724V21.82a2.727 2.727 0 0 1 2.723-2.724 2.727 2.727 0 0 1 2.724 2.724.646.646 0 1 1-1.291 0 1.434 1.434 0 0 0-2.864 0M6.835 19.095H4.757a.646.646 0 0 0-.646.646v6.917c0 .357.29.646.646.646h2.078A2.727 2.727 0 0 0 9.56 24.58V21.82a2.727 2.727 0 0 0-2.724-2.724m1.432 5.485c0 .79-.642 1.432-1.432 1.432H5.403v-5.626h1.432c.79 0 1.432.643 1.432 1.433zm19.95 1.746a.646.646 0 1 1-1.107.665l-1.524-2.538-1.525 2.538a.646.646 0 1 1-1.107-.665l1.878-3.127-1.878-3.126a.646.646 0 1 1 1.107-.665l1.525 2.537 1.524-2.537a.646.646 0 0 1 1.108.665L26.339 23.2z"/></svg>
